adhocracy-plus/assets/images/blueprints/participatory-budgeting.svg

<?xml version="1.0" encoding="UTF-8"?>
<svg width="270px" height="150px" viewBox="0 0 270 150" version="1.1" xmlns="http://www.w3.org/2000/svg" xmlns:xlink="http://www.w3.org/1999/xlink">
    <rect fill="#253276" x="0" y="0" width="270" height="150"></rect>
    <path d="M148.967332,55.8775987 L148.967332,47.9066632 C149.050747,47.8602158 149.142694,47.8298829 149.218527,47.7701648 C154.697419,43.4979557 158.379083,36.3080942 158.379083,29.8803485 C158.379083,25.6479514 157.393262,22.8430997 155.363797,21.3065452 C152.301115,18.9851252 147.950229,20.2098188 143.34341,21.5056053 C140.485475,22.3103769 137.529907,23.1416898 134.880511,23.1416898 C132.233012,23.1416898 129.280287,22.3179601 126.425196,21.5217197 C121.811741,20.2354122 117.452325,19.0183019 114.388695,21.3435135 C112.365865,22.8791201 111.382887,25.671649 111.382887,29.8803485 C111.382887,36.0180352 114.742264,42.8429532 119.813557,47.1663492 L119.813557,56.2207404 C102.088676,62.7451724 89,86.1129334 89,103.359122 C89,125.378014 113.949815,130 134.880511,130 C155.811208,130 180.761023,125.378014 180.761023,103.359122 C180.761023,85.797281 167.187019,61.8844745 148.967332,55.8775987 L148.967332,55.8775987 Z M134.880511,126.208379 C106.952378,126.208379 92.7916211,118.520867 92.7916211,103.359122 C92.7916211,83.6502755 108.158114,64.0324278 122.007958,59.4606806 L147.071521,59.4606806 L147.754013,59.4606806 C161.603857,64.0324278 176.969402,83.6512234 176.969402,103.359122 C176.969402,118.520867 162.808645,126.208379 134.880511,126.208379 L134.880511,126.208379 Z M115.174509,29.8803485 C115.174509,27.8850079 115.435182,25.3086013 116.681678,24.3635397 C117.185016,23.980586 117.904476,23.8270253 118.766122,23.8270253 C120.578517,23.8270253 123.019373,24.5076213 125.406198,25.1739988 C128.506796,26.0384884 131.71356,26.933311 134.880511,26.933311 C138.05315,26.933311 141.263706,26.0299572 144.370939,25.1559885 C147.881032,24.1682712 151.513405,23.1454815 153.074605,24.3284672 C154.324892,25.2763725 154.587462,27.8707893 154.587462,29.8803485 C154.587462,34.9251004 151.649904,40.7954778 147.381486,44.3795076 L122.379537,44.3814034 C118.113015,40.7973736 115.174509,34.9260483 115.174509,29.8803485 L115.174509,29.8803485 Z M123.605178,55.6700074 L123.605178,48.1730246 L145.175711,48.1730246 L145.175711,55.6700074 L123.605178,55.6700074 Z M136.536691,107.635312 C140.460071,107.635312 144.147423,106.107289 146.921942,103.333718 C147.662256,102.594352 148.862304,102.593404 149.602618,103.333718 C150.342932,104.07498 150.342932,105.275028 149.602618,106.015342 C146.112431,109.50553 141.472434,111.426934 136.536691,111.426934 C128.667182,111.426934 121.949377,106.473181 119.291451,99.5259827 L114.64008,99.5259827 C113.593592,99.5259827 112.744269,98.6766596 112.744269,97.6301722 C112.744269,96.5827368 113.593592,95.7343616 114.64008,95.7343616 L118.293306,95.7343616 C118.153964,94.8234246 118.060122,93.8982691 118.060122,92.9494159 C118.060122,92.0005627 118.153964,91.0754071 118.293306,90.1644702 L114.64008,90.1644702 C113.593592,90.1644702 112.744269,89.3160949 112.744269,88.2686596 C112.744269,87.2221722 113.593592,86.372849 114.64008,86.372849 L119.291451,86.372849 C121.948429,79.4265992 128.667182,74.4718983 136.536691,74.4718983 C141.471486,74.4718983 146.110535,76.3933023 149.599774,79.8815937 C150.340088,80.6219077 150.340088,81.8219558 149.599774,82.5622698 C148.85946,83.3035317 147.659412,83.3025838 146.919098,82.5632177 C144.145527,79.7905948 140.459124,78.2635194 136.536691,78.2635194 C130.804708,78.2635194 125.843372,81.5726567 123.425266,86.372849 L134.198209,86.372849 C135.245644,86.372849 136.09402,87.2221722 136.09402,88.2686596 C136.09402,89.3160949 135.245644,90.1644702 134.198209,90.1644702 L122.12474,90.1644702 C121.950325,91.0678239 121.851743,91.9967711 121.851743,92.9494159 C121.851743,93.9020607 121.950325,94.8319558 122.12474,95.7343616 L134.198209,95.7343616 C135.245644,95.7343616 136.09402,96.5827368 136.09402,97.6301722 C136.09402,98.6766596 135.245644,99.5259827 134.198209,99.5259827 L123.425266,99.5259827 C125.843372,104.327123 130.805656,107.635312 136.536691,107.635312 Z" fill="#FFFFFF"></path>
</svg>

<?xml version="1.0" encoding="utf-8"?>
<!-- Generator: Adobe Illustrator 24.0.0, SVG Export Plug-In . SVG Version: 6.00 Build 0)  -->
<svg version="1.1" id="Ebene_1" xmlns="http://www.w3.org/2000/svg" xmlns:xlink="http://www.w3.org/1999/xlink" x="0px" y="0px"
	 viewBox="0 0 270 150" style="enable-background:new 0 0 270 150;" xml:space="preserve">
<style type="text/css">
	.st0{fill-rule:evenodd;clip-rule:evenodd;fill:#2A3CD4;}
	.st1{fill-rule:evenodd;clip-rule:evenodd;fill:#FFFFFF;}
</style>
<title>icon_buergerhaushalt</title>
<desc>Created with Sketch.</desc>
<g id="Concepts">
	<rect id="icon_buergerhaushalt" class="st0" width="270" height="150"/>
	<path id="Fill-1" class="st1" d="M149,55.9v-8c0.1,0,0.2-0.1,0.3-0.1c5.5-4.3,9.2-11.5,9.2-17.9c0-4.2-1-7-3-8.6
		c-3.1-2.3-7.4-1.1-12,0.2c-2.9,0.8-5.8,1.6-8.5,1.6c-2.6,0-5.6-0.8-8.5-1.6c-4.6-1.3-9-2.5-12-0.2c-2,1.5-3,4.3-3,8.5
		c0,6.1,3.4,13,8.4,17.3v9.1C102.1,62.7,89,86.1,89,103.4c0,22,24.9,26.6,45.9,26.6s45.9-4.6,45.9-26.6
		C180.8,85.8,167.2,61.9,149,55.9L149,55.9z M134.9,126.2c-27.9,0-42.1-7.7-42.1-22.8c0-19.7,15.4-39.3,29.2-43.9h25.1h0.7
		C161.6,64,177,83.7,177,103.4C177,118.5,162.8,126.2,134.9,126.2L134.9,126.2z M115.2,29.9c0-2,0.3-4.6,1.5-5.5
		c0.5-0.4,1.2-0.5,2.1-0.5c1.8,0,4.3,0.7,6.6,1.3c3.1,0.9,6.3,1.8,9.5,1.8s6.4-0.9,9.5-1.8c3.5-1,7.1-2,8.7-0.8
		c1.3,0.9,1.5,3.5,1.5,5.6c0,5-2.9,10.9-7.2,14.5h-25C118.1,40.8,115.2,34.9,115.2,29.9L115.2,29.9z M123.6,55.7v-7.5h21.6v7.5
		H123.6z M136.5,107.6c3.9,0,7.6-1.5,10.4-4.3c0.7-0.7,1.9-0.7,2.7,0c0.7,0.7,0.7,1.9,0,2.7c-3.5,3.5-8.1,5.4-13.1,5.4
		c-7.9,0-14.6-5-17.2-11.9h-4.7c-1,0-1.9-0.8-1.9-1.9c0-1,0.8-1.9,1.9-1.9h3.7c-0.1-0.9-0.2-1.8-0.2-2.8s0.1-1.9,0.2-2.8h-3.7
		c-1,0-1.9-0.8-1.9-1.9c0-1,0.8-1.9,1.9-1.9h4.7c2.7-6.9,9.4-11.9,17.2-11.9c4.9,0,9.6,1.9,13.1,5.4c0.7,0.7,0.7,1.9,0,2.7
		c-0.7,0.7-1.9,0.7-2.7,0c-2.8-2.8-6.5-4.3-10.4-4.3c-5.7,0-10.7,3.3-13.1,8.1h10.8c1,0,1.9,0.8,1.9,1.9c0,1-0.8,1.9-1.9,1.9h-12.1
		c-0.2,0.9-0.3,1.8-0.3,2.8s0.1,1.9,0.3,2.8h12.1c1,0,1.9,0.8,1.9,1.9c0,1-0.8,1.9-1.9,1.9h-10.8
		C125.8,104.3,130.8,107.6,136.5,107.6z"/>
</g>
</svg>
